X:079
%%topmargin 3cm
T:Captain MacDuff
C:Daniel Dow
O:Scotland
B:Keith Norman MacDonald : "The Skye collection of the best reels & strathspeys extant" : 1887
Z:Ralph Palmer
R:Reel
M:C
L:1/8
K:A
a| ecBc A2 EF | Acec Ba | ecBc A2 EF | Afec A<A A :| d | cee>f ecae cee>f ecBd |
cee>c acef | ecBc A<AA>d | cee>f ecae | cee>f ecBd | cee>a faef | ecBc A<A A|]
